!!!SOCIAL_FUNCTION:	songs of the sun dance
!!!PDT:	1922
!!!OTL: No_18_Sun_Dance_Song_(a).krn
!!!REG: Southwest
!!!LANG: Non-Tone
!!!LING_GROUP: Uto-Aztecan
**kern	**kern
*staff2	*staff1
=1-	=1-
*clefF4	*clefF4
*k[b-e-a-d-g-]	*k[b-e-a-d-g-]
*M2/4	*M2/4
8GG-/L	4B-\
8GG-/J	.
8GG-/L	8c\L
8GG-/J	8B-\J
=2	=2
8GG-/L	8B-\L
8GG-/J	8B-\J
8GG-/L	4A-\
8GG-/J	.
=3	=3
2r	4B-\
.	8B-\L
.	8A-\J
=4	=4
2r	8F\L
.	16F\L
.	16E-\JJ
.	8BB-/L
.	16C/L
.	16BB-/JJ
=5||	=5||
*M3/4	*M3/4
2.r	2.BB-/
=6||	=6||
*M2/4	*M2/4
2r	4E-\
.	8G-\L
.	8E-\J
=7	=7
2r	8D-\L
.	8E-\J
.	4D-\
=8	=8
2r	4E-\
.	8E-\L
.	8D-\J
=9	=9
2r	8.BB-/L
.	16BB-/Jk
.	4BB-/
=10	=10
2r	2BB-;/
=11	=11
2r	8BB-/L
.	8BB-/J
.	4BB-/
=12	=12
2r	4E-\
.	8E-\L
.	8D-\J
=13	=13
2r	16.E-\LL
.	32E-\JK
.	8D-\J
.	8BB-/L
.	16D-/L
.	16BB-/JJ
=14	=14
2r	2BB-/
==	==
*-	*-
